img/icons/misc/inbox.svg

<svg fill="none" viewBox="0 0 16 16" xmlns="http://www.w3.org/2000/svg"><path d="m4.33 2c-1.01 0-1.92 0.607-2.31 1.54l-1.83 4.4c-0.127 0.305-0.192 0.631-0.192 0.962v2.6c0 1.38 1.12 2.5 2.5 2.5h11c1.38 0 2.5-1.12 2.5-2.5v-2.6c0-0.33-0.0654-0.657-0.192-0.962l-1.83-4.4c-0.388-0.932-1.3-1.54-2.31-1.54h-7.33zm-1.38 1.92c0.233-0.559 0.779-0.923 1.38-0.923h7.33c0.606 0 1.15 0.364 1.38 0.923l1.7 4.08h-2.13c-0.568 0-1.09 0.321-1.34 0.829l-0.447 0.894c-0.0847 0.169-0.258 0.276-0.447 0.276h-4.76c-0.189 0-0.363-0.107-0.447-0.276l-0.447-0.894c-0.254-0.508-0.773-0.829-1.34-0.829h-2.13l1.7-4.08zm-1.45 5.08c-0.276 0-0.5 0.224-0.5 0.5v2c0 0.828 0.672 1.5 1.5 1.5h11c0.828 0 1.5-0.672 1.5-1.5v-2c0-0.276-0.224-0.5-0.5-0.5h-1.88c-0.189 0-0.362 0.107-0.447 0.276l-0.447 0.894c-0.254 0.508-0.774 0.829-1.34 0.829h-4.76c-0.568 0-1.09-0.321-1.34-0.829l-0.447-0.894c-0.0847-0.169-0.258-0.276-0.447-0.276h-1.88z" clip-rule="evenodd" fill="#000" fill-rule="evenodd"/></svg>

<svg xmlns="http://www.w3.org/2000/svg" viewBox="0 0 16 16" fill="none">
  <path fill="#000" fill-rule="evenodd"
    d="M4.333 2a2.5 2.5 0 0 0-2.307 1.54L.192 7.94A2.5 2.5 0 0 0 0 8.9v2.6A2.5 2.5 0 0 0 2.5 14h11a2.5 2.5 0 0 0 2.5-2.5V8.9a2.5 2.5 0 0 0-.192-.961l-1.834-4.4A2.5 2.5 0 0 0 11.667 2H4.333ZM2.95 3.923A1.5 1.5 0 0 1 4.333 3h7.334a1.5 1.5 0 0 1 1.384.923L14.75 8h-2.132a1.5 1.5 0 0 0-1.342.83l-.447.894a.5.5 0 0 1-.447.276H5.618a.5.5 0 0 1-.447-.276l-.447-.895A1.5 1.5 0 0 0 3.382 8H1.25l1.699-4.077ZM1.5 9a.5.5 0 0 0-.5.5v2A1.5 1.5 0 0 0 2.5 13h11a1.5 1.5 0 0 0 1.5-1.5v-2a.5.5 0 0 0-.5-.5h-1.882a.5.5 0 0 0-.447.277l-.447.894a1.5 1.5 0 0 1-1.342.83H5.618a1.5 1.5 0 0 1-1.342-.83l-.447-.894A.5.5 0 0 0 3.382 9H1.5Z"
    clip-rule="evenodd" />
</svg>
